X: 7
M:2/4
L:1/8
K:G
d|gg gd/2B/2|dc/2B/2 A/2c/2B/2A/2|GG BB|AF/2D/2 Dd|
gg gd/2B/2|dc/2B/2 A/2c/2B/2A/2|Bd de|dc BA||
d|cA AB/2c/2|dd de/2f/2|gf ag|fd d/2f/2e/2d/2|
cA AB/2c/2|dd de/2f/2|ge d^c|d=c BA||

